X: 3187
T: The EWIE WI' THE CROOKIT HORN
Q: "Strathspey."
R: Strathspey.
%R: strathspey
B: James Kerr "Merry Melodies" v.3 p.22 #187
Z: 2016 John Chambers <jc:trillian.mit.edu>
M: C
L: 1/16
K: Gm
[|\
v(DG3) uG3uA vF3vGuA3uF | (DG3) (G2AB) c3AB3G |\
A3Bc3B A3GF3C | (DG3) G3B A3^F G4 |\
(DG3) G3A F3GA3F |
(DG3) (G2AB) c3AB3G |\
A3Bc3B A3GF3C | DG3 G3B A3^F G4 |]\
Gg3 g3a f3ga3f | eg3 g3a f3a g4 |
dg3 g3a (bag2) (agf2) | dg3 b3g a3^f g4 |\
=f3gf3d c3B(AF3) | GABc d3B c3A d3=e |\
fa3 df3 cf3 AF3 | GABc d3B c3A G4 |]

%%sep 1 1 500
%%sep 1 1 500

